X: 5
T: Wonder, The
C: James Hill
Z: John E Roche
S: https://thesession.org/tunes/337#setting46909
R: hornpipe
M: 4/4
L: 1/8
K: Dmaj
|:(3ABc|defd cdec|defd Adcd|Bdgf edcd|eaga ba (3gec|
defd cdec|defd Adcd|Bdgf edcd|eddc d2:|
K:A
|:z2|edce ag a2|edce ag a2|baga bc'd'c'|bagg gf e2|
fffe df (3agf|eeed ce (3efg|(3fga bc'd'c' gb|baag a2:|

